www/assets/icons/wifi_protected_setup.svg

<svg width="24" height="24" viewBox="0 0 24 24" xmlns="http://www.w3.org/2000/svg" fill='currentColor'><path d="M16.705 5.29L18.995 3H10.995V11L13.295 8.7C15.265 10.16 16.545 12.48 16.545 15.12C16.545 16.43 16.225 17.66 15.665 18.75C17.995 17.23 19.545 14.61 19.545 11.62C19.545 9.1 18.435 6.85 16.705 5.29Z"/><path d="M7.45502 8.88C7.45502 7.57 7.77502 6.34 8.33502 5.25C5.99502 6.77 4.45502 9.39 4.45502 12.38C4.45502 14.9 5.55502 17.15 7.29502 18.71L4.99502 21H12.995V13L10.695 15.3C8.73502 13.84 7.45502 11.52 7.45502 8.88Z"/></svg>

<svg xmlns="http://www.w3.org/2000/svg" width="24" height="24" viewBox="0 0 24 24" fill='currentColor'><path d="M16.705 5.29 18.995 3h-8v8l2.3-2.3c1.97 1.46 3.25 3.78 3.25 6.42 0 1.31-.32 2.54-.88 3.63 2.33-1.52 3.88-4.14 3.88-7.13 0-2.52-1.11-4.77-2.84-6.33"/><path d="M7.455 8.88c0-1.31.32-2.54.88-3.63a8.48 8.48 0 0 0-3.88 7.13c0 2.52 1.1 4.77 2.84 6.33L4.995 21h8v-8l-2.3 2.3c-1.96-1.46-3.24-3.78-3.24-6.42"/></svg>
